svg/u1f4ae.svg

<svg viewBox="0 0 128 128" xmlns="http://www.w3.org/2000/svg">
  <polygon points="12.2,64.08 7.83,72.24 16.57,78.8 13.36,87.83 22.69,91.77 22.54,104.59 34.78,104.3 37.99,116.83 49.21,113.63 54.31,119.75 63.05,112.46 71.65,119.6 76.31,114.06 88.26,116.83 92.49,104.15 105.89,104.59 104.87,91.33 114.34,87.4 109.68,78.8 120.03,72.24 115.66,63.21 121.05,55.63 111.28,50.09 115.36,38.29 102.98,33.48 103.71,23.28 91.9,25.76 89.43,12.64 80.25,16.29 73.11,8.85 64.51,16.29 53.58,9.87 48.04,17.31 39.3,13.81 35.8,24.45 23.42,22.55 24.87,32.9 11.91,37.71 17.15,49.36 7.24,56.65 " fill="#FFFFFF"/>
  <path d="M77.91,14.54c0,0,5.49-2.81,7.7-3.63c2.33-0.87,4.99-1.84,5.64-1.35c0.65,0.49,1.35,4.88,1.73,8.24 c0.35,3.08,0.76,5.15,0.76,5.15s2.76-0.49,5.85-0.98c3.09-0.49,6.12-1.03,6.5-0.81c0.38,0.22,0.43,4.54,0.43,6.56 c0,2.33-0.22,8.56-0.22,8.56l-4.77-1.3c0,0,0.44-4.06,0.49-5.47c0.05-1.68,0-2.76,0-2.76s-11.49,2.11-11.87,1.79 c-0.38-0.33-2.28-13.17-2.28-13.17s-6.12,2.71-6.67,2.93C80.77,18.46,77.91,14.54,77.91,14.54z" fill="#FF99B7"/>
  <path d="M117.69,63.86l-3.2,3.09l3.25,4.88c0,0-10.67,5.65-10.96,6.37c-0.36,0.89,4.19,8.53,4.19,8.53 l-5.96,2.87l1.14,4.28c0,0,5.26-1.95,6.34-2.44c1.08-0.49,4.44-1.68,4.77-2.55c0.33-0.87-4.23-9.32-4.23-9.32s10.03-5.64,10.19-6.18 c0.16-0.54-1.86-3.88-3.03-5.69C118.99,65.86,117.69,63.86,117.69,63.86z" fill="#FF99B7"/>
  <path d="M47.29,115.18c0,0,2.49,2.87,3.69,4.06c1.19,1.19,3.75,3.63,4.35,3.63c0.6,0,8.13-7.28,8.13-7.28 s7.3,6.9,8.27,6.79c0.98-0.11,7.91-8.35,7.91-8.35l-4.01-2.28l-4.28,5.58c0,0-7.65-7.28-8.08-7.17c-0.43,0.11-8.23,7.28-8.23,7.28 l-4.23-4.61L47.29,115.18z" fill="#FF99B7"/>
  <path d="M10.76,62.88c0,0-6.18,8.72-6.18,9.32c0,0.7,9.59,7.15,9.59,7.15s-4.44,9-4.17,10.03 s11.27,4.44,11.27,4.44l1.3-4.23l-7.05-2.44c0,0,4.12-8.45,4.01-9c-0.11-0.54-8.94-6.56-8.94-6.56s4.23-5.96,4.06-6.07 S10.76,62.88,10.76,62.88z" fill="#FF99B7"/>
  <path d="M22.47,33.67c0.11-0.49-1.65-12.22-0.65-13.01c1.3-1.03,12.78,1.53,12.78,1.53s2.57-10.42,3.71-11.13 c1.14-0.7,11.96,4.99,11.96,4.99l-1.52,4.06l-7.83-3.6c0,0-2.59,10.64-2.97,10.85c-0.38,0.22-11.5-2.21-11.5-2.21l0.84,8.53 L22.47,33.67z" fill="#FF99B7"/>
  <path d="M49.98,50.72c-2.37,0-4.78,1.74-4.69,5.14s3.08,4.42,4.65,4.42c1.97,0,4.87-0.85,4.91-4.74 C54.9,51.52,51.73,50.72,49.98,50.72z" fill="#FF99B7"/>
  <path d="M59.27,55.3c0.05,2.9,1.87,5.05,5.23,5c3.04-0.04,4.56-2.32,4.69-4.74c0.13-2.41-1.83-5.32-5.09-5.27 C60.83,50.34,59.22,52.94,59.27,55.3z" fill="#FF99B7"/>
  <path d="M72.98,54.95c0.13,2.86,2.19,4.47,4.96,4.51c2.77,0.04,4.56-2.32,4.65-4.56 c0.09-2.23-1.83-4.78-4.78-4.82C74.72,50.03,72.87,52.44,72.98,54.95z" fill="#FF99B7"/>
  <path d="M73.47,68.84c-0.09,3.13,2.32,4.82,4.96,4.74c2.64-0.09,4.38-2.23,4.29-5 c-0.09-2.68-2.06-4.56-4.56-4.6C76.06,63.93,73.57,65.57,73.47,68.84z" fill="#FF99B7"/>
  <path d="M64.32,64.73c-2.9-0.13-4.91,2.28-4.78,5.09c0.13,2.81,2.23,4.42,4.69,4.47 c2.46,0.04,4.65-1.34,4.74-4.47C69.05,66.7,66.95,64.85,64.32,64.73z" fill="#FF99B7"/>
  <path d="M50.12,64.03c-2.68,0-4.74,2.55-4.6,5.09c0.13,2.55,1.65,4.78,4.69,4.87 c3.04,0.09,5.05-1.92,5.09-4.96C55.35,66,53.07,64.03,50.12,64.03z" fill="#FF99B7"/>
  <path d="M63.78,79.29c-2.41-0.04-4.64,2.01-4.56,4.87c0.09,3.22,2.77,4.38,4.56,4.38 c2.19,0,4.64-1.34,4.6-4.29C68.34,80.9,66.33,79.34,63.78,79.29z" fill="#FF99B7"/>
  <path d="M113.19,48.94c0,0,5.7-9.46,5.53-10.59c-0.18-1.13-7.01-4.51-14.37-6.29 c-7.36-1.78-16.75,0.06-16.75,0.06s-1.07-5.17-4.04-13.24C80.6,10.8,74.19,5.69,73.47,5.69c-0.71,0-2.91,1.84-4.33,3.03 c-1.43,1.19-4.69,4.33-4.69,4.33s-2.67-2.49-3.74-3.44s-4.75-4.04-6.12-3.86c-1.37,0.18-6.12,6.06-9.14,12.47 c-3.03,6.41-3.98,14.49-3.98,14.49s-9.09-1.66-16.45-1.01c-7.36,0.65-16.09,5.23-16.21,5.82s1.07,3.03,2.02,4.93 c0.95,1.9,3.38,5.82,3.38,5.82s-3.07,1.75-4.73,2.76c-1.66,1.01-5.54,3.59-5.6,4.37c-0.06,0.77,1.48,5.94,8.43,12.47 s15.9,8.77,15.9,8.77s-5.93,5.6-7.71,13.44c-1.78,7.84-0.48,17.58,0.06,17.99c0.53,0.42,3.38,0.18,6.06-0.18 c2.67-0.36,7.24-1.78,7.24-1.78s0.24,4.39,0.48,6.47c0.24,2.08,1.72,7.24,2.67,7.54c0.95,0.3,7.6-1.01,14.19-4.81 c6.59-3.8,11.46-10.93,11.46-10.93s4.1,5.28,10.75,9.44c6.65,4.16,16.75,5.76,17.46,5.4c0.71-0.36,2.02-4.04,2.38-5.82 c0.36-1.78,0.95-6.41,0.95-6.41s4.69,0.53,6.59,0.59c1.9,0.06,5.82,0.06,6.35-0.53s1.07-9.92,0.24-15.8 c-0.83-5.88-5.94-14.49-5.94-14.49s7.13-3.68,13.06-8.31c5.94-4.63,9.62-10.87,9.62-12.71S113.19,48.94,113.19,48.94z M106.55,67.39 c-7.78,4.51-13.66,6.53-13.66,6.53s5.28,5.7,8.02,14.13c2.73,8.43,1.96,14.67,1.96,14.67s-5.28-0.36-6.77-0.59 c-1.48-0.24-6.18-0.89-6.18-0.89s-0.83,5.46-1.19,7.3c-0.36,1.84-0.95,5.34-1.48,5.64s-8.91-1.84-15.08-6.83 c-6.18-4.99-9.29-11.5-9.29-11.5s-5.2,7.7-11.08,11.97c-5.88,4.28-11.1,6.23-11.7,6.06c-0.59-0.18-1.14-12.45-1.68-12.92 s-12.58,2-13.23,1.52c-0.65-0.48-0.06-9.98,2.85-15.5c2.91-5.52,9.28-12.02,9.28-12.02s-10.05-2.23-17.06-6.98 C13.26,63.23,9.52,57.18,9.52,57.18s11.44-6.45,11.49-6.81c0.06-0.36-6.21-10.77-6.21-10.77s6.77-3.5,15.8-3.03 c9.03,0.48,16.33,3.38,16.33,3.38s0.65-10.39,2.97-16.51c2.32-6.12,5.44-10.69,5.44-10.69s2.32,1.69,4.57,3.77 c2.26,2.08,4.94,4.72,4.94,4.72s3.04-3.51,4.94-5.35c1.9-1.84,3.92-3.44,3.92-3.44s3.92,3.86,6.71,12.47 c2.79,8.61,3.15,12.59,3.15,12.59s8.37-1.84,15.85-0.65c7.48,1.19,12.71,3.74,12.71,3.74s-1.6,3.42-2.67,5.15 c-1.07,1.72-3.56,6.02-3.56,6.02s3.56,1.25,6.47,2.55c2.91,1.31,5.46,2.49,5.46,2.49S114.33,62.88,106.55,67.39z" fill="#FF99B7"/>
</svg>

<svg viewBox="0 0 128 128" xmlns="http://www.w3.org/2000/svg">
  <defs/>
  <path d="M12.2,64.08 L7.83,72.24 L16.57,78.8 L13.36,87.83 L22.69,91.77 L22.54,104.59 L34.78,104.3 L37.99,116.83 L49.21,113.63 L54.31,119.75 L63.05,112.46 L71.65,119.6 L76.31,114.06 L88.26,116.83 L92.49,104.15 L105.89,104.59 L104.87,91.33 L114.34,87.4 L109.68,78.8 L120.03,72.24 L115.66,63.21 L121.05,55.63 L111.28,50.09 L115.36,38.29 L102.98,33.48 L103.71,23.28 L91.9,25.76 L89.43,12.64 L80.25,16.29 L73.11,8.85 L64.51,16.29 L53.58,9.87 L48.04,17.31 L39.3,13.81 L35.8,24.45 L23.42,22.55 L24.87,32.9 L11.91,37.71 L17.15,49.36 L7.24,56.65 Z" fill="#FFFFFF"/>
  <path d="M77.91,14.54 C77.91,14.54 83.4,11.73 85.61,10.91 C87.94,10.04 90.6,9.07 91.25,9.56 C91.9,10.05 92.6,14.44 92.98,17.8 C93.33,20.88 93.74,22.95 93.74,22.95 C93.74,22.95 96.5,22.46 99.59,21.97 C102.68,21.48 105.71,20.94 106.09,21.16 C106.47,21.38 106.52,25.7 106.52,27.72 C106.52,30.05 106.3,36.28 106.3,36.28 L101.53,34.98 C101.53,34.98 101.97,30.92 102.02,29.51 C102.07,27.83 102.02,26.75 102.02,26.75 C102.02,26.75 90.53,28.86 90.15,28.54 C89.77,28.21 87.87,15.37 87.87,15.37 C87.87,15.37 81.75,18.08 81.2,18.3 C80.77,18.46 77.91,14.54 77.91,14.54 Z" fill="#FF99B7"/>
  <path d="M117.69,63.86 L114.49,66.95 L117.74,71.83 C117.74,71.83 107.07,77.48 106.78,78.2 C106.42,79.09 110.97,86.73 110.97,86.73 L105.01,89.6 L106.15,93.88 C106.15,93.88 111.41,91.93 112.49,91.44 C113.57,90.95 116.93,89.76 117.26,88.89 C117.59,88.02 113.03,79.57 113.03,79.57 C113.03,79.57 123.06,73.93 123.22,73.39 C123.38,72.85 121.36,69.51 120.19,67.7 C118.99,65.86 117.69,63.86 117.69,63.86 Z" fill="#FF99B7"/>
  <path d="M47.29,115.18 C47.29,115.18 49.78,118.05 50.98,119.24 C52.17,120.43 54.73,122.87 55.33,122.87 C55.93,122.87 63.46,115.59 63.46,115.59 C63.46,115.59 70.76,122.49 71.73,122.38 C72.71,122.27 79.64,114.03 79.64,114.03 L75.63,111.75 L71.35,117.33 C71.35,117.33 63.7,110.05 63.27,110.16 C62.84,110.27 55.04,117.44 55.04,117.44 L50.81,112.83 L47.29,115.18 Z" fill="#FF99B7"/>
  <path d="M10.76,62.88 C10.76,62.88 4.58,71.6 4.58,72.2 C4.58,72.9 14.17,79.35 14.17,79.35 C14.17,79.35 9.73,88.35 10,89.38 C10.27,90.41 21.27,93.82 21.27,93.82 L22.57,89.59 L15.52,87.15 C15.52,87.15 19.64,78.7 19.53,78.15 C19.42,77.61 10.59,71.59 10.59,71.59 C10.59,71.59 14.82,65.63 14.65,65.52 C14.48,65.41 10.76,62.88 10.76,62.88 Z" fill="#FF99B7"/>
  <path d="M22.47,33.67 C22.58,33.18 20.82,21.45 21.82,20.66 C23.12,19.63 34.6,22.19 34.6,22.19 C34.6,22.19 37.17,11.77 38.31,11.06 C39.45,10.36 50.27,16.05 50.27,16.05 L48.75,20.11 L40.92,16.51 C40.92,16.51 38.33,27.15 37.95,27.36 C37.57,27.58 26.45,25.15 26.45,25.15 L27.29,33.68 L22.47,33.67 Z" fill="#FF99B7"/>
  <path d="M49.98,50.72 C47.61,50.72 45.2,52.46 45.29,55.86 C45.38,59.26 48.37,60.28 49.94,60.28 C51.91,60.28 54.81,59.43 54.85,55.54 C54.9,51.52 51.73,50.72 49.98,50.72 Z" fill="#FF99B7"/>
  <path d="M59.27,55.3 C59.32,58.2 61.14,60.35 64.5,60.3 C67.54,60.26 69.06,57.98 69.19,55.56 C69.32,53.15 67.36,50.24 64.1,50.29 C60.83,50.34 59.22,52.94 59.27,55.3 Z" fill="#FF99B7"/>
  <path d="M72.98,54.95 C73.11,57.81 75.17,59.42 77.94,59.46 C80.71,59.5 82.5,57.14 82.59,54.9 C82.68,52.67 80.76,50.12 77.81,50.08 C74.72,50.03 72.87,52.44 72.98,54.95 Z" fill="#FF99B7"/>
  <path d="M73.47,68.84 C73.38,71.97 75.79,73.66 78.43,73.58 C81.07,73.49 82.81,71.35 82.72,68.58 C82.63,65.9 80.66,64.02 78.16,63.98 C76.06,63.93 73.57,65.57 73.47,68.84 Z" fill="#FF99B7"/>
  <path d="M64.32,64.73 C61.42,64.6 59.41,67.01 59.54,69.82 C59.67,72.63 61.77,74.24 64.23,74.29 C66.69,74.33 68.88,72.95 68.97,69.82 C69.05,66.7 66.95,64.85 64.32,64.73 Z" fill="#FF99B7"/>
  <path d="M50.12,64.03 C47.44,64.03 45.38,66.58 45.52,69.12 C45.65,71.67 47.17,73.9 50.21,73.99 C53.25,74.08 55.26,72.07 55.3,69.03 C55.35,66 53.07,64.03 50.12,64.03 Z" fill="#FF99B7"/>
  <path d="M63.78,79.29 C61.37,79.25 59.14,81.3 59.22,84.16 C59.31,87.38 61.99,88.54 63.78,88.54 C65.97,88.54 68.42,87.2 68.38,84.25 C68.34,80.9 66.33,79.34 63.78,79.29 Z" fill="#FF99B7"/>
  <path d="M113.19,48.94 C113.19,48.94 118.89,39.48 118.72,38.35 C118.54,37.22 111.71,33.84 104.35,32.06 C96.99,30.28 87.6,32.12 87.6,32.12 C87.6,32.12 86.53,26.95 83.56,18.88 C80.6,10.8 74.19,5.69 73.47,5.69 C72.76,5.69 70.56,7.53 69.14,8.72 C67.71,9.91 64.45,13.05 64.45,13.05 C64.45,13.05 61.78,10.56 60.71,9.61 C59.64,8.66 55.96,5.57 54.59,5.75 C53.22,5.93 48.47,11.81 45.45,18.22 C42.42,24.63 41.47,32.71 41.47,32.71 C41.47,32.71 32.38,31.05 25.02,31.7 C17.66,32.35 8.93,36.93 8.81,37.52 C8.69,38.11 9.88,40.55 10.83,42.45 C11.78,44.35 14.21,48.27 14.21,48.27 C14.21,48.27 11.14,50.02 9.48,51.03 C7.82,52.04 3.94,54.62 3.88,55.4 C3.82,56.17 5.36,61.34 12.31,67.87 C19.26,74.4 28.21,76.64 28.21,76.64 C28.21,76.64 22.28,82.24 20.5,90.08 C18.72,97.92 20.02,107.66 20.56,108.07 C21.09,108.49 23.94,108.25 26.62,107.89 C29.29,107.53 33.86,106.11 33.86,106.11 C33.86,106.11 34.1,110.5 34.34,112.58 C34.58,114.66 36.06,119.82 37.01,120.12 C37.96,120.42 44.61,119.11 51.2,115.31 C57.79,111.51 62.66,104.38 62.66,104.38 C62.66,104.38 66.76,109.66 73.41,113.82 C80.06,117.98 90.16,119.58 90.87,119.22 C91.58,118.86 92.89,115.18 93.25,113.4 C93.61,111.62 94.2,106.99 94.2,106.99 C94.2,106.99 98.89,107.52 100.79,107.58 C102.69,107.64 106.61,107.64 107.14,107.05 C107.67,106.46 108.21,97.13 107.38,91.25 C106.55,85.37 101.44,76.76 101.44,76.76 C101.44,76.76 108.57,73.08 114.5,68.45 C120.44,63.82 124.12,57.58 124.12,55.74 C124.12,53.9 113.19,48.94 113.19,48.94 Z M106.55,67.39 C98.77,71.9 92.89,73.92 92.89,73.92 C92.89,73.92 98.17,79.62 100.91,88.05 C103.64,96.48 102.87,102.72 102.87,102.72 C102.87,102.72 97.59,102.36 96.1,102.13 C94.62,101.89 89.92,101.24 89.92,101.24 C89.92,101.24 89.09,106.7 88.73,108.54 C88.37,110.38 87.78,113.88 87.25,114.18 C86.72,114.48 78.34,112.34 72.17,107.35 C65.99,102.36 62.88,95.85 62.88,95.85 C62.88,95.85 57.68,103.55 51.8,107.82 C45.92,112.1 40.7,114.05 40.1,113.88 C39.51,113.7 38.96,101.43 38.42,100.96 C37.88,100.49 25.84,102.96 25.19,102.48 C24.54,102 25.13,92.5 28.04,86.98 C30.95,81.46 37.32,74.96 37.32,74.96 C37.32,74.96 27.27,72.73 20.26,67.98 C13.26,63.23 9.52,57.18 9.52,57.18 C9.52,57.18 20.96,50.73 21.01,50.37 C21.07,50.01 14.8,39.6 14.8,39.6 C14.8,39.6 21.57,36.1 30.6,36.57 C39.63,37.05 46.93,39.95 46.93,39.95 C46.93,39.95 47.58,29.56 49.9,23.44 C52.22,17.32 55.34,12.75 55.34,12.75 C55.34,12.75 57.66,14.44 59.91,16.52 C62.17,18.6 64.85,21.24 64.85,21.24 C64.85,21.24 67.89,17.73 69.79,15.89 C71.69,14.05 73.71,12.45 73.71,12.45 C73.71,12.45 77.63,16.31 80.42,24.92 C83.21,33.53 83.57,37.51 83.57,37.51 C83.57,37.51 91.94,35.67 99.42,36.86 C106.9,38.05 112.13,40.6 112.13,40.6 C112.13,40.6 110.53,44.02 109.46,45.75 C108.39,47.47 105.9,51.77 105.9,51.77 C105.9,51.77 109.46,53.02 112.37,54.32 C115.28,55.63 117.83,56.81 117.83,56.81 C117.83,56.81 114.33,62.88 106.55,67.39 Z" fill="#FF99B7"/>
</svg>
